X:102
T:In Bibberly town - Bennett
C:Taken down from J. Bennett, by F.W.B.
%%VWML:SBG-1-1-524-0
F:http://www.vwml.org/record/SBG/1/1/524
Z:Original Sibleius Transcription by Martin and Shan Graebe
L:1/8
M:6/8
I:linebreak $
K:G
B | B B c d2 d | B2 c d2 d | c2 B A2 G | F2 D D2 E | =F2 E D2 E | =FE F D2 G |$ G2 G A B c | 
B2 G G2 G | G3/2 G/ G2 D/ D3/2 E | =F3/2 E/ F D2 G | G2 G A3/2 B/ c | B2 G G2 z |] 



